X: 35195
T: Rooskey, The
R: polka
M: 2/4
K: Gmajor
d/|Bd de/f/|g/f/e/d/ BG|Be e/d/G|BA AB/c/|
d2 de/f/|g/f/e/d/ BG|Bd g>a|ba g>:|
d/|Bd g>a|ba a/b/a/g/|fd fa|g (3f/g/f/ (3e/f/e/ (3d/e/d/|
Bd g>a|ba a/b/a/g/|fd ef|g2 g>:|

